images/16758364.svg

<?xml version="1.0" encoding="UTF-8"?>
<svg xmlns="http://www.w3.org/2000/svg" xmlns:xlink="http://www.w3.org/1999/xlink" width="300pt" height="300pt" viewBox="0 0 300 300" version="1.1">
<defs>
<g>
<symbol overflow="visible" id="glyph0-0">
<path style="stroke:none;" d="M 0.453125 1.59375 L 0.453125 -6.34375 L 4.953125 -6.34375 L 4.953125 1.59375 Z M 0.953125 1.09375 L 4.453125 1.09375 L 4.453125 -5.84375 L 0.953125 -5.84375 Z M 0.953125 1.09375 "/>
</symbol>
<symbol overflow="visible" id="glyph0-1">
<path style="stroke:none;" d="M 0.890625 -6.5625 L 2.078125 -6.5625 L 4.984375 -1.078125 L 4.984375 -6.5625 L 5.84375 -6.5625 L 5.84375 0 L 4.65625 0 L 1.75 -5.484375 L 1.75 0 L 0.890625 0 Z M 0.890625 -6.5625 "/>
</symbol>
<symbol overflow="visible" id="glyph0-2">
<path style="stroke:none;" d="M 3.546875 -5.953125 C 2.898438 -5.953125 2.382812 -5.710938 2 -5.234375 C 1.625 -4.753906 1.4375 -4.101562 1.4375 -3.28125 C 1.4375 -2.445312 1.625 -1.789062 2 -1.3125 C 2.382812 -0.832031 2.898438 -0.59375 3.546875 -0.59375 C 4.191406 -0.59375 4.703125 -0.832031 5.078125 -1.3125 C 5.453125 -1.789062 5.640625 -2.445312 5.640625 -3.28125 C 5.640625 -4.101562 5.453125 -4.753906 5.078125 -5.234375 C 4.703125 -5.710938 4.191406 -5.953125 3.546875 -5.953125 Z M 3.546875 -6.6875 C 4.460938 -6.6875 5.195312 -6.375 5.75 -5.75 C 6.300781 -5.132812 6.578125 -4.3125 6.578125 -3.28125 C 6.578125 -2.238281 6.300781 -1.410156 5.75 -0.796875 C 5.195312 -0.179688 4.460938 0.125 3.546875 0.125 C 2.617188 0.125 1.878906 -0.179688 1.328125 -0.796875 C 0.773438 -1.410156 0.5 -2.238281 0.5 -3.28125 C 0.5 -4.3125 0.773438 -5.132812 1.328125 -5.75 C 1.878906 -6.375 2.617188 -6.6875 3.546875 -6.6875 Z M 3.546875 -6.6875 "/>
</symbol>
</g>
</defs>
<g id="surface46981">
<rect x="0" y="0" width="300" height="300" style="fill:rgb(100%,100%,100%);fill-opacity:1;stroke:none;"/>
<path style="fill:none;stroke-width:1.2;stroke-linecap:butt;stroke-linejoin:miter;stroke:rgb(0%,0%,0%);stroke-opacity:1;stroke-miterlimit:10;" d="M 239.722656 157.742188 L 237.253906 176.46875 "/>
<path style="fill:none;stroke-width:1.2;stroke-linecap:butt;stroke-linejoin:miter;stroke:rgb(0%,0%,0%);stroke-opacity:1;stroke-miterlimit:10;" d="M 237.253906 176.46875 L 244.746094 182.21875 "/>
<path style="fill:none;stroke-width:1.2;stroke-linecap:butt;stroke-linejoin:miter;stroke:rgb(0%,0%,100%);stroke-opacity:1;stroke-miterlimit:10;" d="M 244.746094 182.21875 L 252.238281 187.96875 "/>
<path style="fill:none;stroke-width:1.2;stroke-linecap:butt;stroke-linejoin:miter;stroke:rgb(0%,0%,0%);stroke-opacity:1;stroke-miterlimit:10;" d="M 236.046875 181.144531 L 242.039062 185.742188 "/>
<path style="fill:none;stroke-width:1.2;stroke-linecap:butt;stroke-linejoin:miter;stroke:rgb(0%,0%,100%);stroke-opacity:1;stroke-miterlimit:10;" d="M 242.039062 185.742188 L 248.03125 190.34375 "/>
<path style="fill:none;stroke-width:1.2;stroke-linecap:butt;stroke-linejoin:miter;stroke:rgb(0%,0%,0%);stroke-opacity:1;stroke-miterlimit:10;" d="M 237.253906 176.46875 L 219.804688 183.691406 "/>
<path style="fill:none;stroke-width:1.2;stroke-linecap:butt;stroke-linejoin:miter;stroke:rgb(0%,0%,100%);stroke-opacity:1;stroke-miterlimit:10;" d="M 252.238281 187.96875 L 251.003906 197.332031 "/>
<path style="fill:none;stroke-width:1.2;stroke-linecap:butt;stroke-linejoin:miter;stroke:rgb(100%,0%,0%);stroke-opacity:1;stroke-miterlimit:10;" d="M 251.003906 197.332031 L 249.769531 206.695312 "/>
<path style=" stroke:none;fill-rule:nonzero;fill:rgb(100%,100%,100%);fill-opacity:1;" d="M 249.238281 182.46875 L 256.238281 182.46875 L 256.238281 193.46875 L 249.238281 193.46875 Z M 249.238281 182.46875 "/>
<g style="fill:rgb(0%,0%,100%);fill-opacity:1;">
  <use xlink:href="#glyph0-1" x="249.238281" y="191.131836"/>
</g>
<path style="fill:none;stroke-width:1.2;stroke-linecap:butt;stroke-linejoin:miter;stroke:rgb(100%,0%,0%);stroke-opacity:1;stroke-miterlimit:10;" d="M 249.769531 206.695312 L 257.257812 212.445312 "/>
<path style="fill:none;stroke-width:1.2;stroke-linecap:butt;stroke-linejoin:miter;stroke:rgb(0%,0%,0%);stroke-opacity:1;stroke-miterlimit:10;" d="M 257.257812 212.445312 L 264.75 218.195312 "/>
<path style=" stroke:none;fill-rule:nonzero;fill:rgb(100%,100%,100%);fill-opacity:1;" d="M 245.769531 201.195312 L 253.769531 201.195312 L 253.769531 212.195312 L 245.769531 212.195312 Z M 245.769531 201.195312 "/>
<g style="fill:rgb(100%,0%,0%);fill-opacity:1;">
  <use xlink:href="#glyph0-2" x="245.769531" y="209.858398"/>
</g>
<path style="fill:none;stroke-width:1.2;stroke-linecap:butt;stroke-linejoin:miter;stroke:rgb(0%,0%,0%);stroke-opacity:1;stroke-miterlimit:10;" d="M 219.804688 183.691406 L 204.820312 172.191406 "/>
<path style="fill:none;stroke-width:1.2;stroke-linecap:butt;stroke-linejoin:miter;stroke:rgb(0%,0%,0%);stroke-opacity:1;stroke-miterlimit:10;" d="M 204.820312 172.191406 L 187.371094 179.414062 "/>
<path style="fill:none;stroke-width:1.2;stroke-linecap:butt;stroke-linejoin:miter;stroke:rgb(0%,0%,0%);stroke-opacity:1;stroke-miterlimit:10;" d="M 185.167969 179.125 L 183.933594 188.488281 "/>
<path style="fill:none;stroke-width:1.2;stroke-linecap:butt;stroke-linejoin:miter;stroke:rgb(100%,0%,0%);stroke-opacity:1;stroke-miterlimit:10;" d="M 183.933594 188.488281 L 182.699219 197.851562 "/>
<path style="fill:none;stroke-width:1.2;stroke-linecap:butt;stroke-linejoin:miter;stroke:rgb(0%,0%,0%);stroke-opacity:1;stroke-miterlimit:10;" d="M 189.574219 179.707031 L 188.339844 189.070312 "/>
<path style="fill:none;stroke-width:1.2;stroke-linecap:butt;stroke-linejoin:miter;stroke:rgb(100%,0%,0%);stroke-opacity:1;stroke-miterlimit:10;" d="M 188.339844 189.070312 L 187.105469 198.429688 "/>
<path style="fill:none;stroke-width:1.2;stroke-linecap:butt;stroke-linejoin:miter;stroke:rgb(0%,0%,0%);stroke-opacity:1;stroke-miterlimit:10;" d="M 187.371094 179.414062 L 179.878906 173.664062 "/>
<path style="fill:none;stroke-width:1.2;stroke-linecap:butt;stroke-linejoin:miter;stroke:rgb(100%,0%,0%);stroke-opacity:1;stroke-miterlimit:10;" d="M 179.878906 173.664062 L 172.390625 167.914062 "/>
<path style=" stroke:none;fill-rule:nonzero;fill:rgb(100%,100%,100%);fill-opacity:1;" d="M 180.902344 192.640625 L 188.902344 192.640625 L 188.902344 203.640625 L 180.902344 203.640625 Z M 180.902344 192.640625 "/>
<g style="fill:rgb(100%,0%,0%);fill-opacity:1;">
  <use xlink:href="#glyph0-2" x="180.902344" y="201.303711"/>
</g>
<path style="fill:none;stroke-width:1.2;stroke-linecap:butt;stroke-linejoin:miter;stroke:rgb(100%,0%,0%);stroke-opacity:1;stroke-miterlimit:10;" d="M 172.390625 167.914062 L 163.664062 171.527344 "/>
<path style="fill:none;stroke-width:1.2;stroke-linecap:butt;stroke-linejoin:miter;stroke:rgb(0%,0%,0%);stroke-opacity:1;stroke-miterlimit:10;" d="M 163.664062 171.527344 L 154.9375 175.140625 "/>
<path style=" stroke:none;fill-rule:nonzero;fill:rgb(100%,100%,100%);fill-opacity:1;" d="M 168.390625 162.414062 L 176.390625 162.414062 L 176.390625 173.414062 L 168.390625 173.414062 Z M 168.390625 162.414062 "/>
<g style="fill:rgb(100%,0%,0%);fill-opacity:1;">
  <use xlink:href="#glyph0-2" x="168.390625" y="171.077148"/>
</g>
<path style=" stroke:none;fill-rule:nonzero;fill:rgb(0%,0%,0%);fill-opacity:1;" d="M 139.957031 163.640625 L 152.910156 177.785156 L 156.96875 172.496094 Z M 139.957031 163.640625 "/>
<path style="fill:none;stroke-width:1.2;stroke-linecap:butt;stroke-linejoin:miter;stroke:rgb(0%,0%,0%);stroke-opacity:1;stroke-miterlimit:10;" d="M 139.957031 163.640625 L 122.503906 170.863281 "/>
<path style="fill:none;stroke-width:1.2;stroke-linecap:butt;stroke-linejoin:miter;stroke:rgb(100%,0%,0%);stroke-opacity:1;stroke-miterlimit:10;" d="M 142.425781 144.914062 L 141.191406 154.277344 "/>
<path style="fill:none;stroke-width:1.2;stroke-linecap:butt;stroke-linejoin:miter;stroke:rgb(0%,0%,0%);stroke-opacity:1;stroke-miterlimit:10;" d="M 141.191406 154.277344 L 139.957031 163.640625 "/>
<path style="fill:none;stroke-width:1.2;stroke-linecap:butt;stroke-linejoin:miter;stroke:rgb(0%,0%,0%);stroke-opacity:1;stroke-miterlimit:10;" d="M 122.503906 170.863281 L 107.523438 159.363281 "/>
<path style=" stroke:none;fill-rule:nonzero;fill:rgb(0%,0%,0%);fill-opacity:1;" d="M 122.503906 170.863281 L 116.730469 189.152344 L 123.339844 190.023438 Z M 122.503906 170.863281 "/>
<path style="fill:none;stroke-width:1.2;stroke-linecap:butt;stroke-linejoin:miter;stroke:rgb(0%,0%,0%);stroke-opacity:1;stroke-miterlimit:10;" d="M 107.523438 159.363281 L 109.992188 140.636719 "/>
<path style="fill:none;stroke-width:1.2;stroke-linecap:butt;stroke-linejoin:miter;stroke:rgb(0%,0%,0%);stroke-opacity:1;stroke-miterlimit:10;" d="M 112.175781 158.070312 L 114.152344 143.089844 "/>
<path style="fill:none;stroke-width:1.2;stroke-linecap:butt;stroke-linejoin:miter;stroke:rgb(0%,0%,0%);stroke-opacity:1;stroke-miterlimit:10;" d="M 109.992188 140.636719 L 127.441406 133.414062 "/>
<path style="fill:none;stroke-width:1.2;stroke-linecap:butt;stroke-linejoin:miter;stroke:rgb(0%,0%,0%);stroke-opacity:1;stroke-miterlimit:10;" d="M 127.441406 133.414062 L 134.933594 139.164062 "/>
<path style="fill:none;stroke-width:1.2;stroke-linecap:butt;stroke-linejoin:miter;stroke:rgb(100%,0%,0%);stroke-opacity:1;stroke-miterlimit:10;" d="M 134.933594 139.164062 L 142.425781 144.914062 "/>
<path style=" stroke:none;fill-rule:nonzero;fill:rgb(0%,0%,0%);fill-opacity:1;" d="M 127.441406 133.414062 L 133.214844 115.125 L 126.605469 114.253906 Z M 127.441406 133.414062 "/>
<path style=" stroke:none;fill-rule:nonzero;fill:rgb(100%,100%,100%);fill-opacity:1;" d="M 138.425781 139.414062 L 146.425781 139.414062 L 146.425781 150.414062 L 138.425781 150.414062 Z M 138.425781 139.414062 "/>
<g style="fill:rgb(100%,0%,0%);fill-opacity:1;">
  <use xlink:href="#glyph0-2" x="138.425781" y="148.077148"/>
</g>
<path style="fill:none;stroke-width:1.2;stroke-linecap:butt;stroke-linejoin:miter;stroke:rgb(0%,0%,0%);stroke-opacity:1;stroke-miterlimit:10;" d="M 129.910156 114.6875 L 147.363281 107.464844 "/>
<path style="fill:none;stroke-width:1.2;stroke-linecap:butt;stroke-linejoin:miter;stroke:rgb(0%,0%,0%);stroke-opacity:1;stroke-miterlimit:10;" d="M 129.957031 109.859375 L 143.917969 104.078125 "/>
<path style="fill:none;stroke-width:1.2;stroke-linecap:butt;stroke-linejoin:miter;stroke:rgb(0%,0%,0%);stroke-opacity:1;stroke-miterlimit:10;" d="M 114.929688 103.1875 L 129.910156 114.6875 "/>
<path style="fill:none;stroke-width:1.2;stroke-linecap:butt;stroke-linejoin:miter;stroke:rgb(0%,0%,0%);stroke-opacity:1;stroke-miterlimit:10;" d="M 147.363281 107.464844 L 149.832031 88.738281 "/>
<path style="fill:none;stroke-width:1.2;stroke-linecap:butt;stroke-linejoin:miter;stroke:rgb(0%,0%,0%);stroke-opacity:1;stroke-miterlimit:10;" d="M 149.832031 88.738281 L 134.847656 77.238281 "/>
<path style="fill:none;stroke-width:1.2;stroke-linecap:butt;stroke-linejoin:miter;stroke:rgb(0%,0%,0%);stroke-opacity:1;stroke-miterlimit:10;" d="M 145.628906 91.113281 L 133.640625 81.914062 "/>
<path style="fill:none;stroke-width:1.2;stroke-linecap:butt;stroke-linejoin:miter;stroke:rgb(0%,0%,0%);stroke-opacity:1;stroke-miterlimit:10;" d="M 134.847656 77.238281 L 117.398438 84.460938 "/>
<path style="fill:none;stroke-width:1.2;stroke-linecap:butt;stroke-linejoin:miter;stroke:rgb(0%,0%,0%);stroke-opacity:1;stroke-miterlimit:10;" d="M 117.398438 84.460938 L 114.929688 103.1875 "/>
<path style="fill:none;stroke-width:1.2;stroke-linecap:butt;stroke-linejoin:miter;stroke:rgb(0%,0%,0%);stroke-opacity:1;stroke-miterlimit:10;" d="M 121.558594 86.914062 L 119.582031 101.894531 "/>
<path style="fill:none;stroke-width:1.2;stroke-linecap:butt;stroke-linejoin:miter;stroke:rgb(100%,0%,0%);stroke-opacity:1;stroke-miterlimit:10;" d="M 120.035156 189.589844 L 111.308594 193.199219 "/>
<path style="fill:none;stroke-width:1.2;stroke-linecap:butt;stroke-linejoin:miter;stroke:rgb(0%,0%,0%);stroke-opacity:1;stroke-miterlimit:10;" d="M 111.308594 193.199219 L 102.585938 196.8125 "/>
<path style=" stroke:none;fill-rule:nonzero;fill:rgb(100%,100%,100%);fill-opacity:1;" d="M 116.035156 184.089844 L 124.035156 184.089844 L 124.035156 195.089844 L 116.035156 195.089844 Z M 116.035156 184.089844 "/>
<g style="fill:rgb(100%,0%,0%);fill-opacity:1;">
  <use xlink:href="#glyph0-2" x="116.035156" y="192.75293"/>
</g>
<path style="fill:none;stroke-width:1.2;stroke-linecap:butt;stroke-linejoin:miter;stroke:rgb(0%,0%,0%);stroke-opacity:1;stroke-miterlimit:10;" d="M 102.585938 196.8125 L 87.601562 185.3125 "/>
<path style="fill:none;stroke-width:1.2;stroke-linecap:butt;stroke-linejoin:miter;stroke:rgb(0%,0%,0%);stroke-opacity:1;stroke-miterlimit:10;" d="M 98.378906 199.1875 L 86.394531 189.988281 "/>
<path style="fill:none;stroke-width:1.2;stroke-linecap:butt;stroke-linejoin:miter;stroke:rgb(0%,0%,0%);stroke-opacity:1;stroke-miterlimit:10;" d="M 100.117188 215.539062 L 102.585938 196.8125 "/>
<path style="fill:none;stroke-width:1.2;stroke-linecap:butt;stroke-linejoin:miter;stroke:rgb(0%,0%,0%);stroke-opacity:1;stroke-miterlimit:10;" d="M 87.601562 185.3125 L 70.152344 192.535156 "/>
<path style="fill:none;stroke-width:1.2;stroke-linecap:butt;stroke-linejoin:miter;stroke:rgb(0%,0%,0%);stroke-opacity:1;stroke-miterlimit:10;" d="M 70.152344 192.535156 L 67.683594 211.261719 "/>
<path style="fill:none;stroke-width:1.2;stroke-linecap:butt;stroke-linejoin:miter;stroke:rgb(0%,0%,0%);stroke-opacity:1;stroke-miterlimit:10;" d="M 74.3125 194.988281 L 72.335938 209.96875 "/>
<path style="fill:none;stroke-width:1.2;stroke-linecap:butt;stroke-linejoin:miter;stroke:rgb(0%,0%,0%);stroke-opacity:1;stroke-miterlimit:10;" d="M 67.683594 211.261719 L 82.664062 222.761719 "/>
<path style="fill:none;stroke-width:1.2;stroke-linecap:butt;stroke-linejoin:miter;stroke:rgb(0%,0%,0%);stroke-opacity:1;stroke-miterlimit:10;" d="M 67.683594 211.261719 L 58.957031 214.875 "/>
<path style="fill:none;stroke-width:1.2;stroke-linecap:butt;stroke-linejoin:miter;stroke:rgb(100%,0%,0%);stroke-opacity:1;stroke-miterlimit:10;" d="M 58.957031 214.875 L 50.230469 218.488281 "/>
<path style="fill:none;stroke-width:1.2;stroke-linecap:butt;stroke-linejoin:miter;stroke:rgb(0%,0%,0%);stroke-opacity:1;stroke-miterlimit:10;" d="M 82.664062 222.761719 L 100.117188 215.539062 "/>
<path style="fill:none;stroke-width:1.2;stroke-linecap:butt;stroke-linejoin:miter;stroke:rgb(0%,0%,0%);stroke-opacity:1;stroke-miterlimit:10;" d="M 82.710938 217.933594 L 96.671875 212.15625 "/>
<path style="fill:none;stroke-width:1.2;stroke-linecap:butt;stroke-linejoin:miter;stroke:rgb(100%,0%,0%);stroke-opacity:1;stroke-miterlimit:10;" d="M 50.230469 218.488281 L 42.742188 212.734375 "/>
<path style="fill:none;stroke-width:1.2;stroke-linecap:butt;stroke-linejoin:miter;stroke:rgb(0%,0%,0%);stroke-opacity:1;stroke-miterlimit:10;" d="M 42.742188 212.734375 L 35.25 206.984375 "/>
<path style=" stroke:none;fill-rule:nonzero;fill:rgb(100%,100%,100%);fill-opacity:1;" d="M 46.230469 212.988281 L 54.230469 212.988281 L 54.230469 223.988281 L 46.230469 223.988281 Z M 46.230469 212.988281 "/>
<g style="fill:rgb(100%,0%,0%);fill-opacity:1;">
  <use xlink:href="#glyph0-2" x="46.230469" y="221.651367"/>
</g>
</g>
</svg>

<svg xmlns="http://www.w3.org/2000/svg" xmlns:xlink="http://www.w3.org/1999/xlink" width="300pt" height="300pt" viewBox="0 0 300 300"><defs><symbol overflow="visible"><path d="M.453 1.594v-7.938h4.5v7.938zm.5-.5h3.5v-6.938h-3.5zm0 0"/></symbol><symbol overflow="visible" id="a"><path d="M.89-6.563H2.08l2.906 5.485v-5.484h.86V0H4.656L1.75-5.484V0H.89zm0 0"/></symbol><symbol overflow="visible" id="b"><path d="M3.547-5.953c-.65 0-1.164.242-1.547.72-.375.48-.563 1.13-.563 1.952 0 .835.188 1.49.563 1.967.383.48.898.72 1.547.72.644 0 1.156-.24 1.53-.72.376-.476.564-1.132.564-1.968 0-.822-.187-1.474-.562-1.954-.375-.477-.887-.72-1.53-.72zm0-.734c.914 0 1.648.312 2.203.937.55.617.828 1.438.828 2.47 0 1.042-.277 1.87-.828 2.483-.555.617-1.29.922-2.203.922-.93 0-1.668-.305-2.22-.922C.774-1.41.5-2.237.5-3.28c0-1.033.273-1.853.828-2.47.55-.625 1.29-.938 2.22-.938zm0 0"/></symbol></defs><g><path fill="#fff" d="M0 0h300v300H0z"/><path d="M239.723 157.742l-2.47 18.727M237.254 176.47l7.492 5.75" stroke-width="1.2" stroke="#000" stroke-miterlimit="10" fill="none"/><path d="M244.746 182.22l7.492 5.75" stroke-width="1.2" stroke="#00f" stroke-miterlimit="10" fill="none"/><path d="M236.047 181.145l5.992 4.597" stroke-width="1.2" stroke="#000" stroke-miterlimit="10" fill="none"/><path d="M242.04 185.742l5.99 4.602" stroke-width="1.2" stroke="#00f" stroke-miterlimit="10" fill="none"/><path d="M237.254 176.47l-17.45 7.22" stroke-width="1.2" stroke="#000" stroke-miterlimit="10" fill="none"/><path d="M252.238 187.97l-1.234 9.362" stroke-width="1.2" stroke="#00f" stroke-miterlimit="10" fill="none"/><path d="M251.004 197.332l-1.234 9.363" stroke-width="1.2" stroke="#f00" stroke-miterlimit="10" fill="none"/><path d="M249.238 182.47h7v11h-7zm0 0" fill="#fff"/><use xlink:href="#a" x="249.238" y="191.132" fill="#00f"/><path d="M249.77 206.695l7.488 5.75" stroke-width="1.2" stroke="#f00" stroke-miterlimit="10" fill="none"/><path d="M257.258 212.445l7.492 5.75" stroke-width="1.2" stroke="#000" stroke-miterlimit="10" fill="none"/><path d="M245.77 201.195h8v11h-8zm0 0" fill="#fff"/><use xlink:href="#b" x="245.77" y="209.858" fill="#f00"/><path d="M219.805 183.69l-14.985-11.5M204.82 172.19l-17.45 7.224M185.168 179.125l-1.234 9.363" stroke-width="1.2" stroke="#000" stroke-miterlimit="10" fill="none"/><path d="M183.934 188.488l-1.235 9.364" stroke-width="1.2" stroke="#f00" stroke-miterlimit="10" fill="none"/><path d="M189.574 179.707l-1.234 9.363" stroke-width="1.2" stroke="#000" stroke-miterlimit="10" fill="none"/><path d="M188.34 189.07l-1.235 9.36" stroke-width="1.2" stroke="#f00" stroke-miterlimit="10" fill="none"/><path d="M187.37 179.414l-7.49-5.75" stroke-width="1.2" stroke="#000" stroke-miterlimit="10" fill="none"/><path d="M179.88 173.664l-7.49-5.75" stroke-width="1.2" stroke="#f00" stroke-miterlimit="10" fill="none"/><path d="M180.902 192.64h8v11h-8zm0 0" fill="#fff"/><use xlink:href="#b" x="180.902" y="201.304" fill="#f00"/><path d="M172.39 167.914l-8.726 3.613" stroke-width="1.2" stroke="#f00" stroke-miterlimit="10" fill="none"/><path d="M163.664 171.527l-8.726 3.614" stroke-width="1.2" stroke="#000" stroke-miterlimit="10" fill="none"/><path d="M168.39 162.414h8v11h-8zm0 0" fill="#fff"/><use xlink:href="#b" x="168.391" y="171.077" fill="#f00"/><path d="M139.957 163.64l12.953 14.145 4.06-5.29zm0 0"/><path d="M139.957 163.64l-17.453 7.223" stroke-width="1.2" stroke="#000" stroke-miterlimit="10" fill="none"/><path d="M142.426 144.914l-1.235 9.363" stroke-width="1.2" stroke="#f00" stroke-miterlimit="10" fill="none"/><path d="M141.19 154.277l-1.233 9.364M122.504 170.863l-14.98-11.5" stroke-width="1.2" stroke="#000" stroke-miterlimit="10" fill="none"/><path d="M122.504 170.863l-5.774 18.29 6.61.87zm0 0"/><path d="M107.523 159.363l2.47-18.726M112.176 158.07l1.976-14.98M109.992 140.637l17.45-7.223M127.44 133.414l7.494 5.75" stroke-width="1.2" stroke="#000" stroke-miterlimit="10" fill="none"/><path d="M134.934 139.164l7.492 5.75" stroke-width="1.2" stroke="#f00" stroke-miterlimit="10" fill="none"/><path d="M127.44 133.414l5.775-18.29-6.61-.87zm0 0"/><path d="M138.426 139.414h8v11h-8zm0 0" fill="#fff"/><use xlink:href="#b" x="138.426" y="148.077" fill="#f00"/><path d="M129.91 114.688l17.453-7.223M129.957 109.86l13.96-5.782M114.93 103.188l14.98 11.5M147.363 107.465l2.47-18.727M149.832 88.738l-14.984-11.5M145.63 91.113l-11.99-9.2M134.848 77.238l-17.45 7.223M117.398 84.46l-2.468 18.728M121.56 86.914l-1.978 14.98" stroke-width="1.2" stroke="#000" stroke-miterlimit="10" fill="none"/><path d="M120.035 189.59l-8.726 3.61" stroke-width="1.2" stroke="#f00" stroke-miterlimit="10" fill="none"/><path d="M111.31 193.2l-8.724 3.613" stroke-width="1.2" stroke="#000" stroke-miterlimit="10" fill="none"/><path d="M116.035 184.09h8v11h-8zm0 0" fill="#fff"/><use xlink:href="#b" x="116.035" y="192.753" fill="#f00"/><path d="M102.586 196.813l-14.984-11.5M98.38 199.188l-11.985-9.2M100.117 215.54l2.47-18.727M87.602 185.313l-17.45 7.222M70.152 192.535l-2.468 18.727M74.313 194.988l-1.977 14.98M67.684 211.262l14.98 11.5M67.684 211.262l-8.727 3.613" stroke-width="1.2" stroke="#000" stroke-miterlimit="10" fill="none"/><path d="M58.957 214.875l-8.727 3.613" stroke-width="1.2" stroke="#f00" stroke-miterlimit="10" fill="none"/><path d="M82.664 222.762l17.453-7.223M82.71 217.934l13.962-5.778" stroke-width="1.2" stroke="#000" stroke-miterlimit="10" fill="none"/><path d="M50.23 218.488l-7.488-5.754" stroke-width="1.2" stroke="#f00" stroke-miterlimit="10" fill="none"/><path d="M42.742 212.734l-7.492-5.75" stroke-width="1.2" stroke="#000" stroke-miterlimit="10" fill="none"/><path d="M46.23 212.988h8v11h-8zm0 0" fill="#fff"/><use xlink:href="#b" x="46.23" y="221.651" fill="#f00"/></g></svg>
